X:4766
T:El Quirosanu (CT 323) (Arrg.)
R:Fandangu
C:Tradicional
S:Msica Tradicional Asturiana, (C) Tello & Tito. Asturies, 2001.
S:http://pagina.de/MusTradAst <telloytito@asturies.org>
N:Es un fandango cantando por algunos de los bailadores para suplir la falta de la gaita.
O:Uviu
A:Asturies
G:Arrg.
Z:Cancioneru de Torner 323
M:3/8
L:1/8
Q:3/8=72
W:Ayer, en la romera,
W:baill con un quirosanu
W:y estropayme una deda
W:y desfxome un calcau.
W:
W:Baillando, baillando
W:y al son del tambor,
W:aquel quirosanu
W:un pie me tri.
W:Con el quirosanu
W:nun gelvo baillar;
W:bailla de madrees,
W:que me puede triar.
W:
W:Ai! madre, aquel quirosanu
W:que nun entre na mio praera,
W:qu'onde afinca les pates
W:nun gelve nacer la yerba.
W:
W:Aquel quirosanu
W:que nun entre en mio prau,
W:qu'onde l afinca
W:nun naz el segu;
W:y el mio prau cra
W:mui buen alcacer;
W:si entra el quirosanu
W:nun gelve nacer.
W:
W:Yo quiero baillar con Pachu,
W:Pinn, redobla el tambor,
W:qu'est munchu ms lixeru
W:y ximielgase meyor.
W:
W:Mirilu, mirilu,
W:mirilu baillar;
W:miri les fegures,
W:les geltes que da.
W:Mirilu baillando,
W:paez un moln;
W:que bien da les geltes,
W:miri a Pachn.
K:G
d|"G"gg/g/g/g/|"C"ece|"G"gg/g/g/g/|"G"dBB|
"C"ee/d/c/B/|"D"AFA|"G"dd/c/B/A/|"G"BGd
|:"G"ggf|"C"ece|"G"ggf|"G"d2B|"C"cec|"D"AFA|"Am"cBA|[1 "G"G2d:|[2 "G"G2||
